X: 1
T: J'ai fait une ma\^itresse
O: trad.
S: Handout at 2014 NEFFA
Z: 2015 John Chambers <jc:trillian.mit.edu>
M: 12/8
L: 1/8
K: Am
E \
|: "Am"A2A "G"BcB "F"A3 "G"G3 | "C"ccc "Dm"d2f "Em"e6 :|\
|: "C"eee "G"g2g "C"e3 c3 | "Dm"ddd "C"e2e "F"A3 "G"G3 |\
[M:9/8]\
"F"ccc "G"d2f "C"e3 |[M:12/8] "G"ded "Am"c2B A6 :|
